X:1
T:Title
%%score 1 { 2 | 3 }
L:1/8
Q:1/4=90
M:3/4
K:A
V:1 treble nm="Grand Piano, Soprano"
V:2 bass nm="Choir Pad, Andover, 87.87 D"
V:3 bass 
V:1
 [CE][CA] [Ec]3 [CA] | [CE][DF] [EA] [EA]3 | [CE][CF] [CA]3 [CA] | [Ec][EA] [EB]4 | %4
w: By~George~G.~Bacon,~1919 * * *||||
 [Ec][DB] [CA]3 [CA] | [DB][Ec] [Fd] [DF]3 | [EG][DF] [CE]3 [Ec] | [DB][DG] [CA]4 | %8
w: ||||
 [Ac][Ae] [Ae]3 [Ac] | [EA][EB] [Ac] [Ac]3 | [Ac][Ae] [Ae]3 [Ac] | [EA][Ac] [GB]4 | %12
w: ||||
 [CE][CA] [Ec]3 [CA] | [CE][DF] [EA] [EA]3 | [Ae][Ae] [Ac]3 [FB] | [EA][EG] [EA]4- | [EA]4 z2 |] %17
w: |||||
V:2
 A,A, A,3 E, | A,A, C C3 | A,A, E,3 E, | A,A, G,4 | A,G, A,3 A, | A,A, A, A,3 | A,A, A,3 A, | %7
 G,B, A,4 | EC C3 E | CD E E3 | EC C3 E | EE E4 | A,A, A,3 E, | A,A,[K:treble] C C3 | CC E3 D | %15
 CB, C4- | C4 z2 |] %17
V:3
 A,,A,, A,,3 A,, | A,,A,, A,, A,,3 | A,,A,, A,,3 A,, | A,,C, E,4 | z E, F,3 F, | F,E, D, D,3 | %6
 C,D, E,3 E, | E,E, A,,4 | A,A, A,3 A, | A,A, A, A,3 | A,A, A,3 A, | CA, E,4 | A,,A,, A,,3 A,, | %13
 A,,A,, A,, A,,3 | A,A, A,3 D, | E,E, A,,4- | A,,4 z2 |] %17

